svg/fluentui-system-icons/ic_fluent_document_split_hint_20_filled.svg

<svg width="20" height="20" viewBox="0 0 20 20" fill="none" xmlns="http://www.w3.org/2000/svg">
<path d="M10 2V6.5C10 7.32843 10.6716 8 11.5 8H16V9V9.5C16 9.77614 15.7761 10 15.5 10H4.5C4.22386 10 4 9.77614 4 9.5V9V3.5C4 2.67157 4.67157 2 5.5 2H10ZM11 2.25V6.5C11 6.77614 11.2239 7 11.5 7H15.75L11 2.25ZM5 12C5 11.7239 4.77614 11.5 4.5 11.5C4.22386 11.5 4 11.7239 4 12V13C4 13.2761 4.22386 13.5 4.5 13.5C4.77614 13.5 5 13.2761 5 13V12ZM16 12C16 11.7239 15.7761 11.5 15.5 11.5C15.2239 11.5 15 11.7239 15 12V13C15 13.2761 15.2239 13.5 15.5 13.5C15.7761 13.5 16 13.2761 16 13V12ZM5 15.5C5 15.2239 4.77614 15 4.5 15C4.22386 15 4 15.2239 4 15.5V16C4 17.1046 4.89543 18 6 18H6.5C6.77614 18 7 17.7761 7 17.5C7 17.2239 6.77614 17 6.5 17H6C5.44772 17 5 16.5523 5 16V15.5ZM16 15.5C16 15.2239 15.7761 15 15.5 15C15.2239 15 15 15.2239 15 15.5V16C15 16.5523 14.5523 17 14 17H13.5C13.2239 17 13 17.2239 13 17.5C13 17.7761 13.2239 18 13.5 18H14C15.1046 18 16 17.1046 16 16V15.5ZM9 17C8.72386 17 8.5 17.2239 8.5 17.5C8.5 17.7761 8.72386 18 9 18H11C11.2761 18 11.5 17.7761 11.5 17.5C11.5 17.2239 11.2761 17 11 17H9Z" fill="#212121"/>
</svg>

<svg xmlns="http://www.w3.org/2000/svg" width="20" height="20"><path d="M10 2v4.5A1.5 1.5 0 0 0 11.5 8H16v1.5a.5.5 0 0 1-.5.5h-11a.5.5 0 0 1-.5-.5v-6A1.5 1.5 0 0 1 5.5 2H10Zm1 .25V6.5a.5.5 0 0 0 .5.5h4.25L11 2.25ZM5 12a.5.5 0 0 0-1 0v1a.5.5 0 0 0 1 0v-1Zm11 0a.5.5 0 0 0-1 0v1a.5.5 0 0 0 1 0v-1ZM5 15.5a.5.5 0 0 0-1 0v.5a2 2 0 0 0 2 2h.5a.5.5 0 0 0 0-1H6a1 1 0 0 1-1-1v-.5Zm11 0a.5.5 0 0 0-1 0v.5a1 1 0 0 1-1 1h-.5a.5.5 0 0 0 0 1h.5a2 2 0 0 0 2-2v-.5ZM9 17a.5.5 0 0 0 0 1h2a.5.5 0 0 0 0-1H9Z"/></svg>
